svg/vomiting_outline.svg

<?xml version="1.0" encoding="UTF-8" standalone="no"?>
<!-- Created with Inkscape (http://www.inkscape.org/) -->
<svg id="svg8" xmlns:rdf="http://www.w3.org/1999/02/22-rdf-syntax-ns#" xmlns="http://www.w3.org/2000/svg" height="48" viewBox="0 0 12.7 12.7" width="48" version="1.1" xmlns:cc="http://creativecommons.org/ns#" xmlns:dc="http://purl.org/dc/elements/1.1/">
 <title id="title4753">UIO-icon</title>
 <metadata id="metadata5">
  <rdf:RDF>
   <cc:Work rdf:about="">
    <dc:format>image/svg+xml</dc:format>
    <dc:type rdf:resource="http://purl.org/dc/dcmitype/StillImage"/>
    <dc:title>UIO-icon</dc:title>
    <dc:creator>
     <cc:Agent>
      <dc:title>Joaquín Urbano</dc:title>
     </cc:Agent>
    </dc:creator>
    <dc:rights>
     <cc:Agent>
      <dc:title>GPL</dc:title>
     </cc:Agent>
    </dc:rights>
   </cc:Work>
  </rdf:RDF>
 </metadata>
 <path id="path35226" d="m37.402 4c-3.453-0.00059999-6.2549 2.7982-6.2559 6.252 0 3.454 2.8019 6.2539 6.2559 6.2539 3.454-0.00099999 6.253-2.7999 6.252-6.2539 0-3.453-2.799-6.2515-6.252-6.252zm-0.007813 0.51562c3.1666 0.00033403 5.7332 2.5696 5.7324 5.7383-0.00033359 3.1679-2.5666 5.736-5.7324 5.7363-3.1666 0.00074542-5.734-2.5676-5.7344-5.7363-0.00074462-3.1695 2.5671-5.739 5.7344-5.7383zm-14.201 9.502c-1.193 0.005-2.3828 0.10508-3.5938 0.33008-3.936 0.75499-7.5304 2.6663-10.486 5.5742-2.0255 2.011-3.7078 4.789-2.0078 7.043 3.2015 4.4639 6.4998 6.8321 10.488 10.748h-10.519c-4.06 0-4.136 6.2475 0.12305 6.2715 1.2998 0.08 16.25-0.112 17.905-0.132 1.639-0.565 2.417-3.101 1.648-4.942-3.132-6.195-20.742-17.327-0.295-15.224 0.79099 0.038 2.2753 0.71925 2.207 3.1545-0.051999 4.7159-0.195 11.882 0.00000149 14.834-0.029 3.017 5.291 3.213 5.293 0 0.045999-10.45-0.002187-14.247 0.007813-18.629-0.080999-4.2429-3.5403-7.8841-7.1562-8.7871-1.225-0.156-2.4203-0.24523-3.6133-0.24023zm0.098807 0.51338c3.5152-0.27268 6.8648 0.90398 9.226 4.9719 0.7378 1.3283 0.89587 2.7598 0.92982 3.9856-0.01 4.2199 0.035633 8.2197-0.008366 18.286-0.0305 2.2944-4.2301 2.282-4.2635-0.10032l-0.00006564-15.154c0.0515-1.5455-0.73085-3.2511-2.3668-3.3091-2.7488-0.37556-5.0986-0.32732-7.3185-0.14105-3.3357 0.36746-4.4607 2.0051-2.2049 5.3222 1.707 2.682 7.4409 7.9815 8.6668 10.137 1.1692 2.1155 0.30393 4.171-0.84317 4.8207l-18.399-0.004c-2.6721-0.175-3.1915-5.08 0.3046-5.12h11.818c-3.685-3.692-7.154-6.168-11.038-11.189-1.38-1.856-0.9599-3.824 1.624-6.688 1.576-1.382 2.374-2.083 4.693-3.503 1.957-0.963 4.913-2.294 9.179-2.316zm13.897 2.4026c-0.119 0.008-0.21194 0.10852-0.21094 0.22852 0 0.125 0.10352 0.22656 0.22852 0.22656s0.22556-0.10156 0.22656-0.22656c0-0.126-0.10056-0.22952-0.22656-0.22852-0.005-0.00099999-0.011578-0.00099999-0.017578 0zm0.76172 0.65234c-0.126 0-0.22952 0.10252-0.22852 0.22852-0.00099999 0.127 0.10252 0.22852 0.22852 0.22852s0.22852-0.10152 0.22852-0.22852c0-0.126-0.10252-0.22852-0.22852-0.22852zm-0.701 0.842c-0.177 0-0.31836 0.14431-0.31836 0.32031 0 0.177 0.14136 0.31836 0.31836 0.31836s0.32031-0.14136 0.32031-0.31836c0-0.176-0.14331-0.32031-0.32031-0.32031zm1.1074 0.29492c-0.24 0.017-0.42678 0.21799-0.42578 0.45898 0 0.253 0.20403 0.45703 0.45703 0.45703s0.45898-0.20403 0.45898-0.45703-0.20599-0.45898-0.45898-0.45898c-0.010998-0.00099999-0.02025-0.00099999-0.03125 0zm1.0918 1.1289c-0.176 0-0.32031 0.14136-0.32031 0.31836 0 0.176 0.14431 0.32031 0.32031 0.32031 0.177 0 0.31736-0.14431 0.31836-0.32031-0.00099998-0.177-0.14136-0.31836-0.31836-0.31836zm-1.957 0.20703c-0.168 0.011-0.29883 0.15231-0.29883 0.32031 0 0.176 0.14331 0.31836 0.32031 0.31836 0.176 0 0.32031-0.14236 0.32031-0.31836 0-0.177-0.14431-0.32031-0.32031-0.32031-0.008-0.00099999-0.013484-0.00099999-0.021484 0zm0.78125 0.82812c-0.38 0-0.6875 0.30946-0.6875 0.68945-0.00099999 0.381 0.3075 0.68845 0.6875 0.68945 0.381-0.00099999 0.6885-0.30846 0.6875-0.68945 0-0.38-0.3065-0.68945-0.6875-0.68945zm1.959 0.16211c-0.38 0-0.6885 0.30846-0.6875 0.68945 0 0.38 0.3075 0.68945 0.6875 0.68945 0.381 0 0.68945-0.30946 0.68945-0.68945 0.00099999-0.381-0.30846-0.68945-0.68945-0.68945zm-1.607 1.775c-0.12 0.009-0.21094 0.10852-0.21094 0.22852 0.00099999 0.125 0.10252 0.22656 0.22852 0.22656 0.125 0 0.22556-0.10156 0.22656-0.22656 0-0.126-0.10056-0.22852-0.22656-0.22852zm1.998 0.29883c-0.51899 0.00099998-0.93945 0.42241-0.93945 0.94141-0.00099999 0.52099 0.41946 0.94236 0.93945 0.94336 0.52099 0 0.94436-0.42237 0.94336-0.94336 0-0.51999-0.42337-0.94141-0.94336-0.94141zm-1.9883 0.66797c-0.241 0.017-0.42678 0.21799-0.42578 0.45898 0 0.253 0.20403 0.45898 0.45703 0.45898s0.45898-0.20599 0.45898-0.45898c0-0.253-0.20599-0.45898-0.45898-0.45898zm3.1582 1.1191c-0.075999 0.005-0.13572 0.067532-0.13672 0.14453 0 0.080999 0.065485 0.14648 0.14648 0.14648 0.080999 0 0.14648-0.065485 0.14648-0.14648-0.00099999-0.080999-0.066485-0.14453-0.14648-0.14453zm-0.40039 0.66992c-0.381 0-0.6875 0.3065-0.6875 0.6875 0 0.38 0.3065 0.68945 0.6875 0.68945 0.38 0 0.68945-0.30946 0.68945-0.68945 0-0.381-0.30946-0.6875-0.68945-0.6875zm-2.5957 0.089844c-0.277 0.019-0.49123 0.25035-0.49023 0.52734 0.00099999 0.291 0.23635 0.52539 0.52734 0.52539 0.291 0 0.52634-0.23439 0.52734-0.52539 0-0.291-0.23635-0.52734-0.52734-0.52734-0.012-0.00099999-0.025108-0.00099999-0.037109 0zm0.97266 1.2285c-0.093999 0.007-0.16602 0.082782-0.16602 0.17578-0.00099998 0.098999 0.080689 0.17969 0.17969 0.17969 0.098999 0 0.17773-0.080689 0.17773-0.17969-0.00099999-0.097999-0.079736-0.17578-0.17773-0.17578zm2.8633 0.32422c-0.12 0.008-0.21194 0.10852-0.21094 0.22852 0.00099999 0.125 0.10352 0.22656 0.22852 0.22656 0.126 0 0.22752-0.10156 0.22852-0.22656 0-0.126-0.10252-0.22952-0.22852-0.22852-0.005-0.00099999-0.012579-0.00099999-0.017578 0zm-1.5117 0.20312c-0.168 0.012-0.29883 0.15036-0.29883 0.31836 0 0.177 0.14331 0.32031 0.32031 0.32031 0.176 0 0.32031-0.14331 0.32031-0.32031 0-0.176-0.14431-0.31836-0.32031-0.31836zm-1.8945 0.82617c-0.381 0-0.6875 0.3075-0.6875 0.6875 0 0.381 0.3065 0.68945 0.6875 0.68945 0.38 0 0.6875-0.30846 0.6875-0.68945 0-0.38-0.3075-0.6875-0.6875-0.6875zm3.3203 0.13477c-0.51999 0-0.94236 0.42241-0.94336 0.94141 0 0.51999 0.42337 0.94041 0.94336 0.94141 0.52099 0 0.94241-0.42041 0.94141-0.94141 0-0.51999-0.42141-0.94241-0.94141-0.94141z" transform="scale(.26458)" stroke-width=".23869" fill="#333"/>
</svg>

<svg width="48" height="48" viewBox="0 0 48 48" fill="none" xmlns="http://www.w3.org/2000/svg">
<path d="M37.4015 4C33.9485 3.9994 31.1467 6.79816 31.1457 10.2519C31.1457 13.7059 33.9475 16.5057 37.4015 16.5057C40.8555 16.5047 43.6544 13.7059 43.6534 10.2519C43.6534 6.79896 40.8545 4.0005 37.4015 4ZM37.3937 4.51561C40.5602 4.51595 43.1268 7.08518 43.126 10.2538C43.1257 13.4217 40.5594 15.9898 37.3937 15.9901C34.2271 15.9908 31.6598 13.4225 31.6594 10.2538C31.6586 7.08438 34.2264 4.51491 37.3937 4.51561ZM23.1929 14.0175C21.9999 14.0225 20.8101 14.1226 19.5991 14.3476C15.6632 15.1026 12.0688 17.0138 9.11324 19.9217C7.08776 21.9327 5.40548 24.7106 7.10546 26.9646C10.3069 31.4285 13.6052 33.7966 17.5933 37.7125H7.07446C3.01451 37.7125 2.93851 43.9599 7.19751 43.9839C8.4973 44.0639 23.4473 43.8719 25.1023 43.8519C26.7413 43.2869 27.5193 40.7509 26.7503 38.91C23.6183 32.715 6.00853 21.5832 26.4553 23.6862C27.2463 23.7242 28.7305 24.4054 28.6622 26.8406C28.6102 31.5565 28.4672 38.7225 28.6622 41.6744C28.6332 44.6914 33.9532 44.8874 33.9552 41.6744C34.0012 31.2246 33.953 27.4276 33.963 23.0457C33.882 18.8028 30.4227 15.1617 26.8069 14.2587C25.5819 14.1027 24.3866 14.0134 23.1936 14.0184L23.1929 14.0175ZM23.2917 14.5309C26.8068 14.2582 30.1564 15.4348 32.5176 19.5027C33.2553 20.831 33.4134 22.2625 33.4474 23.4883C33.4374 27.7081 33.483 31.7079 33.439 41.774C33.4085 44.0684 29.2089 44.056 29.1755 41.6737V26.5199C29.227 24.9744 28.4446 23.2688 26.8087 23.2108C24.0599 22.8353 21.7102 22.8835 19.4903 23.0698C16.1546 23.4372 15.0297 25.0749 17.2854 28.3919C18.9924 31.0739 24.7262 36.3733 25.9521 38.5288C27.1213 40.6443 26.256 42.6997 25.109 43.3494L6.71019 43.3454C4.03813 43.1704 3.51873 38.2655 7.01479 38.2255H18.8326C15.1477 34.5335 11.6787 32.0576 7.79478 27.0366C6.4148 25.1807 6.83489 23.2127 9.41876 20.3487C10.9947 18.9667 11.7927 18.2658 14.1117 16.8458C16.0687 15.8828 19.0246 14.5518 23.2906 14.5298L23.2917 14.5309ZM37.1885 16.9334C37.0695 16.9414 36.9766 17.042 36.9776 17.162C36.9776 17.287 37.0811 17.3885 37.2061 17.3885C37.3311 17.3885 37.4316 17.287 37.4326 17.162C37.4326 17.036 37.3321 16.9324 37.2061 16.9334C37.2011 16.9324 37.1945 16.9324 37.1885 16.9334ZM37.9502 17.5858C37.8242 17.5858 37.7207 17.6883 37.7217 17.8143C37.7207 17.9413 37.8242 18.0428 37.9502 18.0428C38.0762 18.0428 38.1787 17.9413 38.1787 17.8143C38.1787 17.6883 38.0762 17.5858 37.9502 17.5858ZM37.2492 18.4278C37.0722 18.4278 36.9309 18.5721 36.9309 18.7481C36.9309 18.9251 37.0722 19.0664 37.2492 19.0664C37.4262 19.0664 37.5695 18.9251 37.5695 18.7481C37.5695 18.5721 37.4262 18.4278 37.2492 18.4278ZM38.3566 18.7227C38.1166 18.7397 37.9298 18.9407 37.9308 19.1817C37.9308 19.4346 38.1348 19.6387 38.3878 19.6387C38.6408 19.6387 38.8468 19.4346 38.8468 19.1817C38.8468 18.9287 38.6408 18.7227 38.3878 18.7227C38.3768 18.7217 38.3676 18.7217 38.3566 18.7227ZM39.4484 19.8516C39.2724 19.8516 39.1281 19.9929 39.1281 20.1699C39.1281 20.3459 39.2724 20.4902 39.4484 20.4902C39.6254 20.4902 39.7657 20.3459 39.7667 20.1699C39.7657 19.9929 39.6254 19.8516 39.4484 19.8516ZM37.4914 20.0586C37.3234 20.0696 37.1926 20.2109 37.1926 20.3789C37.1926 20.5549 37.3359 20.6973 37.5129 20.6973C37.6889 20.6973 37.8332 20.5549 37.8332 20.3789C37.8332 20.2019 37.6889 20.0586 37.5129 20.0586C37.5049 20.0576 37.4994 20.0576 37.4914 20.0586ZM38.2726 20.8867C37.8927 20.8867 37.5852 21.1962 37.5852 21.5761C37.5842 21.9571 37.8927 22.2646 38.2726 22.2656C38.6536 22.2646 38.9611 21.9571 38.9601 21.5761C38.9601 21.1961 38.6536 20.8867 38.2726 20.8867ZM40.2316 21.0488C39.8516 21.0488 39.5431 21.3573 39.5441 21.7382C39.5441 22.1182 39.8516 22.4277 40.2316 22.4277C40.6126 22.4277 40.9211 22.1182 40.9211 21.7382C40.9221 21.3573 40.6126 21.0488 40.2316 21.0488ZM38.6246 22.8238C38.5046 22.8328 38.4137 22.9323 38.4137 23.0523C38.4147 23.1773 38.5162 23.2789 38.6422 23.2789C38.7672 23.2789 38.8678 23.1773 38.8688 23.0523C38.8688 22.9263 38.7682 22.8238 38.6422 22.8238H38.6246ZM40.6226 23.1226C40.1036 23.1236 39.6832 23.545 39.6832 24.064C39.6822 24.585 40.1026 25.0064 40.6226 25.0074C41.1436 25.0074 41.567 24.585 41.566 24.064C41.566 23.544 41.1426 23.1226 40.6226 23.1226ZM38.6343 23.7906C38.3933 23.8076 38.2076 24.0086 38.2086 24.2495C38.2086 24.5025 38.4126 24.7085 38.6656 24.7085C38.9186 24.7085 39.1246 24.5025 39.1246 24.2495C39.1246 23.9965 38.9186 23.7906 38.6656 23.7906H38.6343ZM41.7925 24.9097C41.7165 24.9147 41.6568 24.9772 41.6558 25.0542C41.6558 25.1352 41.7213 25.2007 41.8023 25.2007C41.8833 25.2007 41.9487 25.1352 41.9487 25.0542C41.9477 24.9732 41.8823 24.9097 41.8023 24.9097H41.7925ZM41.3921 25.5796C41.0111 25.5796 40.7046 25.8861 40.7046 26.2671C40.7046 26.6471 41.0111 26.9565 41.3921 26.9565C41.7721 26.9565 42.0816 26.647 42.0816 26.2671C42.0816 25.8861 41.7721 25.5796 41.3921 25.5796ZM38.7964 25.6694C38.5195 25.6884 38.3052 25.9198 38.3062 26.1967C38.3072 26.4877 38.5426 26.7221 38.8336 26.7221C39.1246 26.7221 39.3599 26.4877 39.3609 26.1967C39.3609 25.9058 39.1245 25.6694 38.8336 25.6694C38.8216 25.6684 38.8085 25.6684 38.7964 25.6694ZM39.7691 26.8979C39.6751 26.9049 39.6031 26.9807 39.6031 27.0737C39.6021 27.1727 39.6838 27.2534 39.7828 27.2534C39.8818 27.2534 39.9605 27.1727 39.9605 27.0737C39.9595 26.9757 39.8808 26.8979 39.7828 26.8979H39.7691ZM42.6324 27.2221C42.5124 27.2301 42.4204 27.3306 42.4214 27.4506C42.4224 27.5756 42.5249 27.6772 42.6499 27.6772C42.7759 27.6772 42.8775 27.5756 42.8785 27.4506C42.8785 27.3246 42.7759 27.2211 42.6499 27.2221C42.6449 27.2211 42.6374 27.2211 42.6324 27.2221ZM41.1207 27.4252C40.9527 27.4372 40.8219 27.5756 40.8219 27.7436C40.8219 27.9206 40.9652 28.0639 41.1422 28.0639C41.3182 28.0639 41.4625 27.9206 41.4625 27.7436C41.4625 27.5676 41.3182 27.4252 41.1422 27.4252H41.1207ZM39.2262 28.2514C38.8452 28.2514 38.5387 28.5589 38.5387 28.9389C38.5387 29.3199 38.8452 29.6283 39.2262 29.6283C39.6062 29.6283 39.9137 29.3199 39.9137 28.9389C39.9137 28.5589 39.6062 28.2514 39.2262 28.2514ZM42.5465 28.3862C42.0265 28.3862 41.6041 28.8086 41.6031 29.3276C41.6031 29.8475 42.0265 30.268 42.5465 30.269C43.0674 30.269 43.4889 29.8486 43.4879 29.3276C43.4879 28.8076 43.0665 28.3852 42.5465 28.3862Z" fill="#333333"/>
</svg>
